dist/icons/activities/9.svg

<svg width="40" height="40" viewBox="0 0 40 40" fill="none" xmlns="http://www.w3.org/2000/svg">
<path d="M13.5132 17.6293H23.9868C24.0689 17.6294 24.1502 17.6133 24.226 17.5819C24.3019 17.5505 24.3708 17.5044 24.4289 17.4464C24.4869 17.3884 24.5329 17.3194 24.5643 17.2436C24.5957 17.1677 24.6119 17.0864 24.6118 17.0043V15.2588C24.6118 13.7041 23.9942 12.2132 22.8949 11.1139C21.7956 10.0146 20.3046 9.39697 18.75 9.39697C17.1953 9.39697 15.7044 10.0146 14.6051 11.1139C13.5058 12.2132 12.8882 13.7041 12.8882 15.2588V17.0043C12.8881 17.0864 12.9043 17.1677 12.9357 17.2436C12.9671 17.3194 13.0131 17.3884 13.0711 17.4464C13.1292 17.5044 13.1981 17.5505 13.2739 17.5819C13.3498 17.6133 13.4311 17.6294 13.5132 17.6293ZM14.1382 15.2588C14.1382 14.0357 14.6241 12.8626 15.489 11.9977C16.3538 11.1329 17.5269 10.647 18.75 10.647C19.9731 10.647 21.1462 11.1329 22.011 11.9977C22.8759 12.8626 23.3618 14.0357 23.3618 15.2588V16.3793H14.1382V15.2588Z" fill="#DEC377"/>
<path d="M32.7562 20.6369V16.4625H35.625C35.7154 16.4624 35.8047 16.4428 35.8868 16.4048C35.9689 16.3669 36.0418 16.3116 36.1004 16.2428C36.1591 16.174 36.2021 16.0933 36.2266 16.0063C36.251 15.9192 36.2563 15.8279 36.2421 15.7386C35.6735 13.1771 34.4754 10.7976 32.7562 8.81533V1.87502C32.7562 1.70925 32.6904 1.55028 32.5732 1.43307C32.456 1.31586 32.297 1.25002 32.1312 1.25002H26.3125C26.1467 1.25002 25.9878 1.31586 25.8706 1.43307C25.7533 1.55028 25.6875 1.70925 25.6875 1.87502V3.43877C23.5151 2.42843 21.2237 1.69672 18.8678 1.26102C18.7897 1.24633 18.7096 1.24633 18.6316 1.26102C3.24769 4.22245 1.27562 15.625 1.25794 15.7398C1.24381 15.829 1.24919 15.9202 1.2737 16.0071C1.29821 16.0941 1.34127 16.1746 1.39992 16.2433C1.45856 16.312 1.5314 16.3672 1.61342 16.405C1.69543 16.4429 1.78468 16.4625 1.875 16.4625H4.74375V31.5063H3.61875C3.53666 31.5062 3.45536 31.5223 3.37951 31.5537C3.30366 31.5851 3.23474 31.6312 3.1767 31.6892C3.11865 31.7473 3.07261 31.8162 3.04122 31.892C3.00983 31.9679 2.9937 32.0492 2.99375 32.1313V35.625C2.99375 35.7908 3.0596 35.9497 3.17681 36.067C3.29402 36.1842 3.45299 36.25 3.61875 36.25H23.0201C24.0325 37.187 25.2392 37.8888 26.5542 38.3053C27.8692 38.7219 29.26 38.8428 30.6271 38.6596C31.9943 38.4764 33.3041 37.9934 34.463 37.2453C35.6219 36.4972 36.6013 35.5024 37.3312 34.332C38.061 33.1615 38.5234 31.8443 38.6852 30.4744C38.8471 29.1046 38.7044 27.7159 38.2673 26.4076C37.8303 25.0992 37.1097 23.9036 36.157 22.906C35.2043 21.9085 34.0431 21.1337 32.7562 20.6369ZM5.36875 15.2125H2.66787C3.36875 12.779 6.54787 4.90664 18.75 2.51164C21.282 2.98334 23.7314 3.82269 26.0205 5.00308C26.1158 5.05343 26.2225 5.07828 26.3302 5.07523C26.4379 5.07218 26.543 5.04133 26.6353 4.98568C26.7276 4.93002 26.8039 4.85145 26.8568 4.75759C26.9098 4.66374 26.9376 4.55778 26.9375 4.45002V2.50002H31.5062V9.04377C31.5063 9.19235 31.5593 9.33604 31.6557 9.44908C33.1062 11.1266 34.188 13.0902 34.8312 15.2125H32.1312C32.0492 15.2125 31.9679 15.2286 31.892 15.26C31.8162 15.2914 31.7472 15.3374 31.6892 15.3955C31.6311 15.4535 31.5851 15.5224 31.5537 15.5983C31.5223 15.6741 31.5062 15.7554 31.5062 15.8375V20.2443C31.4629 20.2342 31.4182 20.231 31.375 20.2215C31.1157 20.165 30.8544 20.1198 30.5913 20.0859C30.5044 20.0746 30.4178 20.0635 30.3307 20.0546C30.0133 20.0202 29.6943 20.002 29.375 20C27.6635 19.9965 25.9847 20.4685 24.5257 21.3633C24.4734 21.2657 24.3959 21.184 24.3012 21.1267C24.2065 21.0694 24.0981 21.0387 23.9874 21.0376H18.7651C18.7598 21.0376 18.7554 21.0346 18.75 21.0346C18.7446 21.0346 18.7402 21.0375 18.7349 21.0376H13.5125C13.4304 21.0376 13.3491 21.0537 13.2733 21.0851C13.1974 21.1165 13.1285 21.1625 13.0704 21.2206C13.0124 21.2786 12.9664 21.3476 12.935 21.4234C12.9036 21.4993 12.8875 21.5805 12.8875 21.6626V31.5063H5.99375V15.8375C5.9938 15.7554 5.97766 15.6741 5.94627 15.5983C5.91488 15.5224 5.86885 15.4535 5.8108 15.3955C5.75275 15.3374 5.68383 15.2914 5.60798 15.26C5.53213 15.2286 5.45084 15.2125 5.36875 15.2125ZM22.6656 22.8415C22.5302 22.9795 22.4028 23.1228 22.2769 23.2677C22.1761 23.3839 22.0751 23.499 21.9805 23.6198C21.8622 23.7706 21.7534 23.927 21.6452 24.0843C21.5589 24.2093 21.4711 24.333 21.3913 24.462C21.2902 24.6256 21.2002 24.7947 21.1096 24.964C21.0391 25.096 20.9652 25.2257 20.9011 25.361C20.8171 25.5381 20.7461 25.7209 20.6736 25.9033C20.6197 26.0385 20.5611 26.1711 20.5134 26.3089C20.4465 26.5033 20.3947 26.703 20.3406 26.9023C20.3047 27.0346 20.2618 27.1644 20.2317 27.2987C20.1813 27.5233 20.1486 27.7528 20.1146 27.982C20.0977 28.0962 20.0721 28.2078 20.0594 28.323C20.0203 28.6723 20.0004 29.0235 20 29.375C20.0019 29.6943 20.0201 30.0132 20.0544 30.3306C20.0633 30.4177 20.0744 30.5043 20.0857 30.5912C20.12 30.8543 20.1652 31.1156 20.2213 31.3749C20.2307 31.4183 20.2338 31.463 20.2441 31.5061H19.375V22.2875H23.2446C23.1584 22.3615 23.0832 22.4446 23.0002 22.5213C22.8864 22.6265 22.7735 22.7317 22.6656 22.8415ZM14.1375 31.5063V22.2875H18.125V31.5063H14.1375ZM4.24375 35V32.7563H18.7379C18.7422 32.7563 18.7457 32.7587 18.75 32.7587C18.7543 32.7587 18.7578 32.7563 18.7621 32.7563H20.6292C20.708 32.9591 20.7939 33.1589 20.8869 33.3558C20.8912 33.3651 20.8964 33.3739 20.9008 33.3831C21.0433 33.6799 21.2012 33.969 21.3741 34.2493C21.4018 34.2947 21.4277 34.3408 21.4562 34.3858C21.5893 34.5954 21.7281 34.8013 21.8774 34.9999L4.24375 35ZM29.375 37.5C28.3078 37.5008 27.2509 37.2912 26.2647 36.8832C25.2786 36.4752 24.3826 35.8767 23.6279 35.1221C22.8733 34.3675 22.2748 33.4714 21.8668 32.4853C21.4588 31.4991 21.2492 30.4422 21.25 29.375C21.2499 29.0625 21.2675 28.7502 21.3027 28.4396C21.5364 26.4615 22.4868 24.6375 23.9743 23.3127C25.4617 21.9879 27.3831 21.254 29.375 21.25C29.5931 21.25 29.8103 21.2586 30.0267 21.2759C32.1191 21.4433 34.0655 22.414 35.4581 23.9845C36.8507 25.5551 37.5815 27.6037 37.4972 29.7011C37.413 31.7985 36.5203 33.7819 35.0062 35.2357C33.4921 36.6896 31.4741 37.501 29.375 37.5Z" fill="#DEC377"/>
<path d="M30.1086 28.9948H28.8861C28.533 28.9948 28.1943 28.8545 27.9446 28.6048C27.6949 28.3551 27.5546 28.0164 27.5546 27.6633C27.5546 27.3102 27.6949 26.9715 27.9446 26.7218C28.1943 26.4721 28.533 26.3318 28.8861 26.3318H31.3318C31.4975 26.3318 31.6565 26.266 31.7737 26.1488C31.8909 26.0315 31.9568 25.8726 31.9568 25.7068C31.9568 25.5411 31.8909 25.3821 31.7737 25.2649C31.6565 25.1477 31.4975 25.0818 31.3318 25.0818H30V23.75C30 23.5842 29.9341 23.4253 29.8169 23.3081C29.6997 23.1908 29.5407 23.125 29.375 23.125C29.2092 23.125 29.0502 23.1908 28.933 23.3081C28.8158 23.4253 28.75 23.5842 28.75 23.75V25.0956C28.0784 25.1296 27.4467 25.4249 26.9899 25.9184C26.5331 26.4119 26.2873 27.0644 26.3051 27.7366C26.3229 28.4088 26.6028 29.0474 27.085 29.5161C27.5673 29.9847 28.2136 30.2462 28.8861 30.2448H30.1086C30.252 30.2437 30.3942 30.271 30.527 30.3251C30.6598 30.3792 30.7806 30.4591 30.8824 30.5601C30.9842 30.6611 31.0649 30.7813 31.1201 30.9137C31.1752 31.0461 31.2036 31.1881 31.2036 31.3315C31.2036 31.4749 31.1752 31.6169 31.1201 31.7493C31.0649 31.8816 30.9842 32.0018 30.8824 32.1028C30.7806 32.2038 30.6598 32.2837 30.527 32.3378C30.3942 32.392 30.252 32.4193 30.1086 32.4182H27.4182C27.2524 32.4182 27.0934 32.484 26.9762 32.6012C26.859 32.7185 26.7932 32.8774 26.7932 33.0432C26.7932 33.2089 26.859 33.3679 26.9762 33.4851C27.0934 33.6023 27.2524 33.6682 27.4182 33.6682H28.75V35C28.75 35.1658 28.8158 35.3247 28.933 35.4419C29.0502 35.5592 29.2092 35.625 29.375 35.625C29.5407 35.625 29.6997 35.5592 29.8169 35.4419C29.9341 35.3247 30 35.1658 30 35V33.6682H30.1086C30.4165 33.6698 30.7216 33.6105 31.0065 33.4938C31.2914 33.3771 31.5505 33.2052 31.7687 32.9881C31.987 32.7709 32.1602 32.5128 32.2784 32.2285C32.3966 31.9442 32.4574 31.6394 32.4574 31.3315C32.4574 31.0236 32.3966 30.7187 32.2784 30.4344C32.1602 30.1501 31.987 29.892 31.7687 29.6749C31.5505 29.4577 31.2914 29.2859 31.0065 29.1691C30.7216 29.0524 30.4165 28.9932 30.1086 28.9948Z" fill="#DEC377"/>
</svg>

<svg width="40" height="40" fill="none" xmlns="http://www.w3.org/2000/svg"><path d="M13.513 17.63h10.474a.623.623 0 00.625-.626V15.26a5.862 5.862 0 10-11.724 0v1.745a.624.624 0 00.625.625zm.625-2.371a4.612 4.612 0 019.224 0v1.12h-9.224v-1.12z" fill="#DEC377"/><path d="M32.756 20.637v-4.175h2.869a.625.625 0 00.617-.723 15.789 15.789 0 00-3.486-6.924v-6.94a.625.625 0 00-.625-.625h-5.819a.625.625 0 00-.625.625v1.564a28.433 28.433 0 00-6.82-2.178.638.638 0 00-.235 0C3.248 4.222 1.276 15.625 1.258 15.74a.625.625 0 00.617.722h2.869v15.044H3.619a.623.623 0 00-.625.625v3.494a.625.625 0 00.625.625H23.02a9.367 9.367 0 109.736-15.613zM5.37 15.212H2.668c.7-2.433 3.88-10.305 16.082-12.7a26.422 26.422 0 017.27 2.491.625.625 0 00.918-.553V2.5h4.568v6.544c0 .148.053.292.15.405a15.832 15.832 0 013.175 5.764h-2.7a.626.626 0 00-.625.625v4.406c-.043-.01-.088-.013-.131-.023a9.205 9.205 0 00-1.044-.166 9.417 9.417 0 00-.956-.055 9.24 9.24 0 00-4.85 1.363.617.617 0 00-.538-.325h-5.222l-.015-.003-.015.003h-5.223a.625.625 0 00-.625.625v9.843H5.994V15.838a.624.624 0 00-.625-.625zm17.297 7.63a9.507 9.507 0 00-.39.426c-.1.116-.2.231-.296.352-.118.15-.227.307-.335.464-.086.125-.174.249-.254.378-.1.164-.19.333-.281.502-.07.132-.145.262-.209.397-.084.177-.155.36-.227.542-.054.136-.113.268-.16.406-.067.194-.12.394-.173.593-.036.133-.08.262-.11.397-.05.224-.082.454-.116.683-.017.114-.043.226-.056.341-.039.35-.059.7-.059 1.052a9.415 9.415 0 00.086 1.216c.034.263.08.525.135.784.01.043.013.088.023.131h-.869v-9.218h3.87c-.087.073-.162.157-.245.233a9.66 9.66 0 00-.334.32zm-8.529 8.664v-9.218h3.988v9.218h-3.988zM4.244 35v-2.244h14.494l.012.003.012-.003h1.867c.079.203.165.403.258.6.004.01.01.018.014.027.142.297.3.586.473.866l.082.137c.133.21.272.415.421.614H4.244zm25.131 2.5a8.12 8.12 0 01-5.4-14.187 8.145 8.145 0 016.052-2.037 8.125 8.125 0 01-.652 16.224z" fill="#DEC377"/><path d="M30.109 28.995h-1.223a1.332 1.332 0 010-2.663h2.446a.625.625 0 100-1.25H30V23.75a.625.625 0 00-1.25 0v1.346a2.576 2.576 0 00.136 5.149h1.223a1.087 1.087 0 110 2.173h-2.69a.625.625 0 100 1.25h1.331V35A.625.625 0 1030 35v-1.332h.109a2.337 2.337 0 100-4.673z" fill="#DEC377"/></svg>
